Newaita-dark/actions/32/draw-cross.svg

<svg height="32" viewBox="0 0 32 32" width="32" xmlns="http://www.w3.org/2000/svg"><path d="m11.90625 4.226562c-.726562 0-1.316406.589844-1.316406 1.316407v5.296875h-5.296875c-.726563 0-1.316407.589844-1.316407 1.316406v7.9375c0 .730469.589844 1.320312 1.316407 1.320312h5.296875v5.296876c0 .726562.589844 1.316406 1.316406 1.316406h7.9375c.730469 0 1.320312-.589844 1.320312-1.316406v-5.296876h5.296876c.726562 0 1.316406-.589843 1.316406-1.320312v-7.9375c0-.726562-.589844-1.316406-1.316406-1.316406h-5.296876v-5.296875c0-.726563-.589843-1.316407-1.320312-1.316407zm1.316406 2.632813h5.304688v5.296875c0 .726562.589844 1.316406 1.316406 1.316406h5.300781v5.304688h-5.300781c-.726562 0-1.316406.589844-1.316406 1.316406v5.300781h-5.304688v-5.300781c0-.726562-.589844-1.316406-1.316406-1.316406h-5.296875v-5.304688h5.296875c.726562 0 1.316406-.589844 1.316406-1.316406zm0 0" fill="#e0e0e0"/></svg>

<?xml version="1.0" encoding="UTF-8"?>
<svg xmlns="http://www.w3.org/2000/svg" xmlns:xlink="http://www.w3.org/1999/xlink" width="32px" height="32px" viewBox="0 0 32 32" version="1.1">
<g id="surface1">
<path style=" stroke:none;fill-rule:nonzero;fill:rgb(87.843138%,87.843138%,87.843138%);fill-opacity:1;" d="M 11.90625 4.226562 C 11.179688 4.226562 10.589844 4.816406 10.589844 5.542969 L 10.589844 10.839844 L 5.292969 10.839844 C 4.566406 10.839844 3.976562 11.429688 3.976562 12.15625 L 3.976562 20.09375 C 3.976562 20.824219 4.566406 21.414062 5.292969 21.414062 L 10.589844 21.414062 L 10.589844 26.710938 C 10.589844 27.4375 11.179688 28.027344 11.90625 28.027344 L 19.84375 28.027344 C 20.574219 28.027344 21.164062 27.4375 21.164062 26.710938 L 21.164062 21.414062 L 26.460938 21.414062 C 27.1875 21.414062 27.777344 20.824219 27.777344 20.09375 L 27.777344 12.15625 C 27.777344 11.429688 27.1875 10.839844 26.460938 10.839844 L 21.164062 10.839844 L 21.164062 5.542969 C 21.164062 4.816406 20.574219 4.226562 19.84375 4.226562 Z M 13.222656 6.859375 L 18.527344 6.859375 L 18.527344 12.15625 C 18.527344 12.882812 19.117188 13.472656 19.84375 13.472656 L 25.144531 13.472656 L 25.144531 18.777344 L 19.84375 18.777344 C 19.117188 18.777344 18.527344 19.367188 18.527344 20.09375 L 18.527344 25.394531 L 13.222656 25.394531 L 13.222656 20.09375 C 13.222656 19.367188 12.632812 18.777344 11.90625 18.777344 L 6.609375 18.777344 L 6.609375 13.472656 L 11.90625 13.472656 C 12.632812 13.472656 13.222656 12.882812 13.222656 12.15625 Z M 13.222656 6.859375 "/>
</g>
</svg>
